packages/core/src/svgs/tokens/branded/VAB.svg

<svg width="24" height="24" viewBox="0 0 24 24" fill="none" xmlns="http://www.w3.org/2000/svg">
<path d="M13.3697 20.2924C13.2696 20.4541 13.1297 20.5875 12.9636 20.6801C12.7974 20.7726 12.6102 20.8211 12.42 20.8211C12.2298 20.8211 12.0427 20.7726 11.8765 20.6801C11.7103 20.5875 11.5705 20.4541 11.4703 20.2924L2.14902 4.76681C1.7256 4.06109 2.25489 3.17896 3.10174 3.17896H19.7976C21.5031 3.17896 22.5557 4.96088 21.6912 6.36641L19.6624 9.67729C18.8744 10.9652 17.5159 11.4122 15.9575 11.4122H9.61194C9.35314 11.4122 9.04733 11.6475 9.05909 12.0003C9.07085 12.3531 9.35314 12.5884 9.61194 12.5884H14.2167C14.5959 12.5895 14.9681 12.6913 15.2951 12.8836C15.6221 13.0758 15.892 13.3514 16.0775 13.6822C16.263 14.0132 16.3572 14.3873 16.3506 14.7665C16.3439 15.1457 16.2367 15.5165 16.0398 15.8406L13.3697 20.2924Z" fill="url(#paint0_linear_364_967)"/>
<defs>
<linearGradient id="paint0_linear_364_967" x1="4.64841" y1="5.23727" x2="12.5759" y2="19.9454" gradientUnits="userSpaceOnUse">
<stop stop-color="#470180"/>
<stop offset="0.82" stop-color="#EF62C9"/>
<stop offset="1" stop-color="#FFCCF7"/>
</linearGradient>
</defs>
</svg>

<svg xmlns="http://www.w3.org/2000/svg" width="24" height="24" fill="none" viewBox="0 0 24 24">
    <path fill="url(#VAB__a)" d="M13.37 20.292a1.118 1.118 0 0 1-1.9 0L2.15 4.767c-.423-.706.106-1.588.953-1.588h16.696c1.705 0 2.758 1.782 1.893 3.187l-2.029 3.311c-.788 1.288-2.146 1.735-3.704 1.735H9.612a.576.576 0 0 0-.553.588c.012.353.294.588.553.588h4.605a2.14 2.14 0 0 1 1.823 3.253z"/>
    <defs>
        <linearGradient id="VAB__a" x1="4.648" x2="12.576" y1="5.237" y2="19.945" gradientUnits="userSpaceOnUse">
            <stop stop-color="#470180"/>
            <stop offset=".82" stop-color="#EF62C9"/>
            <stop offset="1" stop-color="#FFCCF7"/>
        </linearGradient>
    </defs>
</svg>
